X:8711
T:KnockBride
M:2/2
L:1/8
C:Ed Reavy
R:Reel
N:The Reavys lived half way 
N:between Knockbride and Maudabawn 
N:chapels. They had the luxury of 
N:attending either. And they did.
Z:Joe Reavy
K:D
c|d2 cd fdAB|cBcd dAGA|d^cAB [E2=c2] AG|FGAB cAGA|
d^cde =fdec|dcAF GE=CE|DEFG (3ABA GE|=FDEC D3:||
c|defg ad (3ddd|adfd adfB|=cdef gc (3ccc|g=cec gcec|
defg (3agf (3gfe|fdec dcAG|FGAB cBAF|GECE D3:||
